Yaru++/apps/scalable/com.github.ranfdev.raddiu.svg

<svg enable-background="new" height="256" viewBox="0 0 256 256" width="256" xmlns="http://www.w3.org/2000/svg" xmlns:xlink="http://www.w3.org/1999/xlink">
  <linearGradient id="linearGradient4358" gradientTransform="matrix(0 -1 1 0 -10.0054 585.9946)" gradientUnits="userSpaceOnUse" x1="88" x2="488" y1="88" y2="488">
    <stop offset="0" stop-opacity=".588235"/>
    <stop offset=".88" stop-opacity="0"/>
    <stop offset="1"/>
  </linearGradient>
  <filter id="filter4380" color-interpolation-filters="sRGB" height="1.088" width="1.106" x="-.05" y="-.04">
    <feGaussianBlur stdDeviation="8.48"/>
  </filter>
  <filter id="filter4346" color-interpolation-filters="sRGB" height="1.022" width="1.026" x="-.01" y="-.01">
    <feGaussianBlur stdDeviation="2.12"/>
  </filter>
  <clipPath>
    <path d="m6 196h74v98h-74z"/>
  </clipPath>
  <path d="m189.84323 74c-70.59344 0-78.18921 7.250835-77.84323 77.98706v146.01294 146.01294c-.34598 70.73623 7.24979 77.98706 77.84323 77.98706h196.31354c70.59344 0 76.00668-7.27384 77.84323-77.98706v-146.01294-146.01294c0-70.737067-7.24979-77.98706-77.84323-77.98706z" filter="url(#filter4346)" opacity=".1" transform="matrix(0 .5 -.5 0 276.82523 -15.328148)"/>
  <path d="m189.84323 74c-70.59344 0-78.18921 7.250835-77.84323 77.98706v146.01294 146.01294c-.34598 70.73623 7.24979 77.98706 77.84323 77.98706h196.31354c70.59344 0 77.84323-7.24999 77.84323-77.98706v-146.01294-146.01294c0-70.737067-7.24979-77.98706-77.84323-77.98706z" fill="url(#linearGradient4358)" filter="url(#filter4380)" opacity=".3" transform="matrix(0 .5 -.5 0 276.82523 -15.328148)"/>
  <path d="m241.83043 77.478254c0-36.098811-3.69016-39.983003-39.68984-39.806081h-74.31016-74.310154c-35.99969-.176922-39.68984 3.70727-39.68984 39.806081v100.387326c0 36.09881 3.68973 39.80608 39.68984 39.80608h74.310154 74.31016c36.00011 0 39.68984-3.70727 39.68984-39.80608z" opacity=".1"/>
  <path d="m15.825983 119.66916v57.07617c0 35.29673 3.624067 39.09487 38.992187 38.92188h73.00781 73.00586c35.36811.17299 38.99414-3.62515 38.99414-38.92188v-57.07617z" fill="#fff" opacity=".05"/>
  <path d="m144.81641 39.666016h-16.99024-73.007811c-35.36853 0-38.992187 3.625159-38.992187 38.921875v98.156249c0 35.29673 3.624067 39.09487 38.992187 38.92188h73.007811 16.99024z" fill="#e5a50a"/>
  <path d="m144.81641 39.666016v176.000004h56.01562c35.36811.17299 38.99414-3.62515 38.99414-38.92188v-98.156249c0-35.296716-3.62561-38.921875-38.99414-38.921875z" fill="#63452c"/>
  <g enable-background="new" stroke-width="2.3505219">
    <circle cx="192.32129" cy="101.8129796" fill="#e5a50a" r="18.8041752"/>
    <circle cx="185.2697243" cy="90.0603701" fill="#63452c" r="3.0862352547"/>
  </g>
  <g stroke-width="2.350522">
    <rect fill="#e5a50a" height="9.402088" rx="4.701044" width="14.103132" x="173.517125" y="139.421367"/>
    <rect fill="#e5a50a" height="9.402088" rx="4.701044" width="14.103132" x="197.022315" y="139.421367"/>
    <rect fill="#e5a50a" height="9.402088" rx="4.701044" width="14.103132" x="173.517125" y="162.926537"/>
    <rect fill="#e5a50a" height="9.402088" rx="4.701044" width="14.103132" x="197.022315" y="162.926537"/>
    <path d="m80.321279 75.957224a51.711483 51.711483 0 0 0 -29.620227 9.402109h59.304758a51.711483 51.711483 0 0 0 -29.684531-9.402109zm-39.85787 18.80419a51.711483 51.711483 0 0 0 -6.142578 9.402086h92.060569a51.711483 51.711483 0 0 0 -6.22519-9.402086zm-9.842814 18.804166a51.711483 51.711483 0 0 0 -1.776645 9.40208h102.93175a51.711483 51.711483 0 0 0 -1.717-9.40208zm-1.753704 18.80418a51.711483 51.711483 0 0 0 1.716994 9.40209h99.438085a51.711483 51.711483 0 0 0 1.77666-9.40209zm5.394264 18.80417a51.711483 51.711483 0 0 0 6.225222 9.40208h79.692773a51.711483 51.711483 0 0 0 6.14257-9.40208zm16.375616 18.80419a51.711483 51.711483 0 0 0 29.684508 9.40209 51.711483 51.711483 0 0 0 29.620251-9.40209z" fill="#63452c"/>
  </g>
  <path d="m54.81817 39.667201c-35.36853 0-38.992187 3.623202-38.992187 38.919923v98.158206c0 .0882.0019.16224.002.25v-96.410156c-.000047-35.29672 3.625564-38.921879 38.994094-38.921879h73.005853 73.00586c35.28016 0 38.97394 3.621035 38.99219 38.671879v-1.74805c0-35.296721-3.62561-38.919923-38.99414-38.919923h-73.00586z" fill="#fff" opacity=".3"/>
  <path d="m15.825983 174.74533v2c0 35.29673 3.624067 39.09487 38.992187 38.92188h73.00781 73.00586c35.36811.17299 38.99414-3.62515 38.99414-38.92188v-2c0 35.29673-3.62603 39.09487-38.99414 38.92188h-73.00586-73.00781c-35.36812.17299-38.992187-3.62515-38.992187-38.92188z" opacity=".2"/>
</svg>

<?xml version="1.0" encoding="UTF-8" standalone="no"?>
<svg
   xmlns:dc="http://purl.org/dc/elements/1.1/"
   xmlns:cc="http://creativecommons.org/ns#"
   xmlns:rdf="http://www.w3.org/1999/02/22-rdf-syntax-ns#"
   xmlns:svg="http://www.w3.org/2000/svg"
   xmlns="http://www.w3.org/2000/svg"
   xmlns:xlink="http://www.w3.org/1999/xlink"
   xmlns:sodipodi="http://sodipodi.sourceforge.net/DTD/sodipodi-0.dtd"
   xmlns:inkscape="http://www.inkscape.org/namespaces/inkscape"
   style="enable-background:new"
   width="256"
   height="256"
   version="1.0"
   viewBox="0 0 256 256"
   id="svg55"
   sodipodi:docname="xterm.svg"
   inkscape:version="0.92.4 (5da689c313, 2019-01-14)">
  <metadata
     id="metadata59">
    <rdf:RDF>
      <cc:Work
         rdf:about="">
        <dc:format>image/svg+xml</dc:format>
        <dc:type
           rdf:resource="http://purl.org/dc/dcmitype/StillImage" />
        <dc:title>
  Adwaita Icon Template
 </dc:title>
      </cc:Work>
    </rdf:RDF>
  </metadata>
  <sodipodi:namedview
     pagecolor="#ffffff"
     bordercolor="#666666"
     borderopacity="1"
     objecttolerance="10"
     gridtolerance="10"
     guidetolerance="10"
     inkscape:pageopacity="0"
     inkscape:pageshadow="2"
     inkscape:window-width="1920"
     inkscape:window-height="1016"
     id="namedview57"
     showgrid="false"
     inkscape:zoom="3.2773438"
     inkscape:cx="128"
     inkscape:cy="128"
     inkscape:window-x="0"
     inkscape:window-y="27"
     inkscape:window-maximized="1"
     inkscape:current-layer="svg55" />
  <title
     id="title4162">
  Adwaita Icon Template
 </title>
  <defs
     id="defs31">
    <linearGradient
       id="linearGradient965"
       x1="48"
       x2="464"
       y1="44"
       y2="44"
       gradientUnits="userSpaceOnUse">
      <stop
         id="stop989"
         offset="0"
         style="stop-color:#77767b" />
      <stop
         id="stop991"
         offset=".05"
         style="stop-color:#c0bfbc" />
      <stop
         id="stop993"
         offset=".1"
         style="stop-color:#9a9996" />
      <stop
         id="stop995"
         offset=".9"
         style="stop-color:#9a9996" />
      <stop
         id="stop997"
         offset=".95"
         style="stop-color:#c0bfbc" />
      <stop
         id="stop999"
         offset="1"
         style="stop-color:#77767b" />
    </linearGradient>
    <radialGradient
       id="radialGradient1030"
       cx="64"
       cy="194.19"
       r="44"
       gradientTransform="matrix(-4.7273,7.9359e-7,-3.0301e-7,-1.6364,238.55,49.766)"
       gradientUnits="userSpaceOnUse">
      <stop
         id="stop1016"
         offset="0"
         style="stop-color:#fff" />
      <stop
         id="stop1018"
         offset="1"
         style="stop-color:#fff;stop-opacity:.094118" />
    </radialGradient>
    <linearGradient
       id="linearGradient1950"
       x1="70.347"
       x2="70.347"
       y1="245.4"
       y2="269.14"
       gradientUnits="userSpaceOnUse">
      <stop
         id="stop1944"
         offset="0"
         style="stop-color:#2d2839" />
      <stop
         id="stop1946"
         offset="1"
         style="stop-color:#282433" />
    </linearGradient>
    <linearGradient
       id="linearGradient918"
       x1="252.122"
       x2="21.425"
       y1="210.694"
       y2="210.694"
       gradientUnits="userSpaceOnUse"
       xlink:href="#linearGradient916" />
    <linearGradient
       id="linearGradient916">
      <stop
         style="stop-color:#000000"
         id="stop912"
         offset="0" />
      <stop
         style="stop-color:#000000;stop-opacity:0"
         id="stop914"
         offset="1" />
    </linearGradient>
    <filter
       style="color-interpolation-filters:sRGB"
       id="filter920"
       width="1.103"
       height="1.143"
       x="-.05"
       y="-.07">
      <feGaussianBlur
         id="feGaussianBlur922"
         stdDeviation="3.138" />
    </filter>
    <linearGradient
       id="linearGradient4358"
       x1="88"
       x2="488"
       y1="88"
       y2="488"
       gradientTransform="rotate(-90,287.9946,298)"
       gradientUnits="userSpaceOnUse"
       xlink:href="#linearGradient4360" />
    <linearGradient
       id="linearGradient4360">
      <stop
         id="stop4362"
         offset="0"
         style="stop-color:#000000;stop-opacity:0.58823532" />
      <stop
         style="stop-color:#000000;stop-opacity:0"
         id="stop4364"
         offset=".88" />
      <stop
         id="stop4366"
         offset="1"
         style="stop-color:#000000" />
    </linearGradient>
    <filter
       style="color-interpolation-filters:sRGB"
       id="filter4380"
       width="1.106"
       height="1.088"
       x="-.05"
       y="-.04">
      <feGaussianBlur
         id="feGaussianBlur4382"
         stdDeviation="8.48" />
    </filter>
    <filter
       style="color-interpolation-filters:sRGB"
       id="filter4346"
       width="1.026"
       height="1.022"
       x="-.01"
       y="-.01">
      <feGaussianBlur
         id="feGaussianBlur4348"
         stdDeviation="2.12" />
    </filter>
    <linearGradient
       id="linearGradient2544">
      <stop
         offset="0"
         id="stop2532"
         style="stop-color:#ab7007" />
      <stop
         style="stop-color:#f5b918"
         offset=".036"
         id="stop2534" />
      <stop
         offset=".071"
         id="stop2536"
         style="stop-color:#3d2b1b" />
      <stop
         style="stop-color:#3d2b1b"
         offset=".929"
         id="stop2538" />
      <stop
         offset=".964"
         id="stop2540"
         style="stop-color:#765335" />
      <stop
         offset="1"
         id="stop2542"
         style="stop-color:#3d2b1b" />
    </linearGradient>
    <linearGradient
       id="linearGradient2530">
      <stop
         style="stop-color:#ab7007"
         offset="0"
         id="stop2518" />
      <stop
         offset=".036"
         id="stop2520"
         style="stop-color:#f5b918" />
      <stop
         style="stop-color:#bd7b08"
         offset=".071"
         id="stop2522" />
      <stop
         offset=".929"
         id="stop2524"
         style="stop-color:#bd7b08" />
      <stop
         style="stop-color:#63452c"
         offset=".964"
         id="stop2526" />
      <stop
         style="stop-color:#ab7007"
         offset="1"
         id="stop2528" />
    </linearGradient>
    <linearGradient
       id="linearGradient2446">
      <stop
         offset="0"
         id="stop2438"
         style="stop-color:#77767b" />
      <stop
         style="stop-color:#9a9996"
         offset=".075"
         id="stop2440" />
      <stop
         offset=".352"
         id="stop2442"
         style="stop-color:#c1bfb9" />
      <stop
         offset="1"
         id="stop2444"
         style="stop-color:#77767b" />
    </linearGradient>
    <linearGradient
       id="linearGradient2436">
      <stop
         offset="0"
         id="stop2428"
         style="stop-color:#77767b" />
      <stop
         style="stop-color:#9a9996"
         offset=".075"
         id="stop2430" />
      <stop
         offset=".352"
         id="stop2432"
         style="stop-color:#deddda" />
      <stop
         offset="1"
         id="stop2434"
         style="stop-color:#77767b" />
    </linearGradient>
    <linearGradient
       id="linearGradient2386">
      <stop
         style="stop-color:#fefefe"
         offset="0"
         id="stop2374" />
      <stop
         offset=".6"
         id="stop2382"
         style="stop-color:#bbbab7" />
      <stop
         style="stop-color:#5e5c64"
         offset="1"
         id="stop2384" />
    </linearGradient>
    <linearGradient
       xlink:href="#linearGradient1036"
       gradientUnits="userSpaceOnUse"
       gradientTransform="translate(604.81684,170.58641)"
       y2="236"
       y1="236"
       x2="96"
       x1="32"
       id="linearGradient1099" />
    <linearGradient
       id="linearGradient1036">
      <stop
         style="stop-color:#d5d3cf"
         offset="0"
         id="stop1032" />
      <stop
         style="stop-color:#f6f5f4"
         offset="1"
         id="stop1034" />
    </linearGradient>
    <radialGradient
       xlink:href="#linearGradient1069"
       gradientUnits="userSpaceOnUse"
       gradientTransform="matrix(0.88333331,0,0,0.88333331,-460.35018,463.11973)"
       fy="-76"
       fx="-244"
       r="32"
       cy="-76"
       cx="-244"
       id="radialGradient1103" />
    <linearGradient
       id="linearGradient1069">
      <stop
         style="stop-color:#d5d3cf"
         offset="0"
         id="stop1065" />
      <stop
         style="stop-color:#949390"
         offset="1"
         id="stop1067-1" />
    </linearGradient>
    <linearGradient
       xlink:href="#linearGradient1025"
       gradientUnits="userSpaceOnUse"
       gradientTransform="translate(-470.5864,432.81685)"
       y2="232"
       y1="262.5"
       x2="64"
       x1="64"
       id="linearGradient1027" />
    <linearGradient
       id="linearGradient1025">
      <stop
         style="stop-color:#9a9996"
         offset="0"
         id="stop1021" />
      <stop
         style="stop-color:#77767b"
         offset="1"
         id="stop1023" />
    </linearGradient>
    <clipPath
       clipPathUnits="userSpaceOnUse"
       id="clipPath1440">
      <circle
         id="circle43"
         transform="rotate(-45)"
         r="24"
         cy="193.747"
         cx="-134.35"
         style="fill:none;stroke:#000000;stroke-width:2" />
    </clipPath>
    <clipPath
       clipPathUnits="userSpaceOnUse"
       id="clipPath1430">
      <circle
         id="circle46"
         r="24"
         cy="232"
         cx="12"
         style="fill:none;stroke:#000000;stroke-width:2" />
    </clipPath>
    <clipPath
       clipPathUnits="userSpaceOnUse"
       id="clipPath1440-9">
      <circle
         id="circle49"
         transform="rotate(-45)"
         r="24"
         cy="193.747"
         cx="-134.35"
         style="fill:none;stroke:#000000;stroke-width:2" />
    </clipPath>
    <clipPath
       clipPathUnits="userSpaceOnUse"
       id="clipPath1430-1">
      <circle
         id="circle52"
         r="24"
         cy="232"
         cx="12"
         style="fill:none;stroke:#000000;stroke-width:2" />
    </clipPath>
    <linearGradient
       xlink:href="#linearGradient2530"
       gradientUnits="userSpaceOnUse"
       gradientTransform="matrix(0.25,0,0,0.25,-14.14897,400.34849)"
       y2="-449.394"
       y1="-449.394"
       x2="536.596"
       x1="88.596"
       id="linearGradient1660" />
    <linearGradient
       xlink:href="#linearGradient2544"
       gradientUnits="userSpaceOnUse"
       gradientTransform="matrix(0.25,0,0,0.25,-14.14897,228.34849)"
       y2="-449.394"
       y1="-449.394"
       x2="536.596"
       x1="88.596"
       id="linearGradient1891" />
    <clipPath
       clipPathUnits="userSpaceOnUse"
       id="clipPath2024">
      <rect
         id="rect57"
         y="196"
         x="6"
         height="98"
         width="74"
         style="fill:#63452c" />
    </clipPath>
    <linearGradient
       id="linearGradient914">
      <stop
         style="stop-color:#f6f5f4;stop-opacity:0.43700787"
         offset="0"
         id="stop910" />
      <stop
         style="stop-color:#deddda;stop-opacity:0"
         offset="1"
         id="stop912-6" />
    </linearGradient>
    <radialGradient
       xlink:href="#linearGradient914"
       gradientUnits="userSpaceOnUse"
       gradientTransform="matrix(2.6086955,0,0,1.8410361,-102.95652,-748.94671)"
       fy="296"
       fx="64"
       r="46"
       cy="296"
       cx="64"
       id="radialGradient916" />
    <linearGradient
       id="linearGradient1150">
      <stop
         offset="0"
         id="stop1142"
         style="stop-color:#9a9996" />
      <stop
         style="stop-color:#c0bfbc"
         offset=".119"
         id="stop1144" />
      <stop
         offset=".351"
         id="stop1146"
         style="stop-color:#deddda" />
      <stop
         style="stop-color:#d2d1ce"
         offset=".602"
         id="stop1153" />
      <stop
         style="stop-color:#bbbab7"
         offset=".853"
         id="stop1151" />
      <stop
         offset="1"
         id="stop1148"
         style="stop-color:#9a9996" />
    </linearGradient>
    <linearGradient
       xlink:href="#linearGradient1150"
       gradientUnits="userSpaceOnUse"
       y2="203"
       y1="203"
       x2="32"
       x1="28"
       id="linearGradient2320"
       gradientTransform="matrix(0.85864804,0,0,0.85864804,17.87761,51.47843)" />
    <linearGradient
       xlink:href="#linearGradient2436"
       gradientUnits="userSpaceOnUse"
       y2="186.897"
       y1="180.897"
       x2="37.047"
       x1="37.047"
       id="linearGradient2330" />
    <linearGradient
       xlink:href="#linearGradient2446"
       gradientUnits="userSpaceOnUse"
       y2="185.897"
       y1="181.897"
       x2="71.047"
       x1="71.047"
       id="linearGradient2340" />
    <radialGradient
       xlink:href="#linearGradient2386"
       gradientUnits="userSpaceOnUse"
       gradientTransform="matrix(0.94529382,0.25329072,-0.26736589,0.99782308,-14.508154,-46.647674)"
       fy="-92.152"
       fx="183.217"
       r="3"
       cy="-92.152"
       cx="183.217"
       id="radialGradient2372" />
  </defs>
  <path
     style="opacity:0.1;filter:url(#filter4346)"
     d="M 189.84323,74 C 119.24979,74 111.65402,81.250835 112,151.98706 V 298 444.01294 C 111.65402,514.74917 119.24979,522 189.84323,522 H 386.15677 C 456.75021,522 462.16345,514.72616 464,444.01294 V 298 151.98706 C 464,81.249993 456.75021,74 386.15677,74 Z"
     transform="matrix(0,0.5,-0.5,0,276.82523,-15.328148)"
     id="path33" />
  <path
     d="M 189.84323,74 C 119.24979,74 111.65402,81.250835 112,151.98706 V 298 444.01294 C 111.65402,514.74917 119.24979,522 189.84323,522 H 386.15677 C 456.75021,522 464,514.75001 464,444.01294 V 298 151.98706 C 464,81.249993 456.75021,74 386.15677,74 Z"
     transform="matrix(0,0.5,-0.5,0,276.82523,-15.328148)"
     style="opacity:0.3;fill:url(#linearGradient4358);filter:url(#filter4380)"
     id="path35" />
  <path
     style="opacity:0.1"
     d="m 241.83043,77.478254 c 0,-36.098811 -3.69016,-39.983003 -39.68984,-39.806081 H 127.83043 53.520276 c -35.99969,-0.176922 -39.68984,3.70727 -39.68984,39.806081 V 177.86558 c 0,36.09881 3.68973,39.80608 39.68984,39.80608 h 74.310154 74.31016 c 36.00011,0 39.68984,-3.70727 39.68984,-39.80608 z"
     id="path37" />
  <path
     style="opacity:0.05;fill:#ffffff"
     d="m 15.825983,119.66916 v 57.07617 c 0,35.29673 3.624067,39.09487 38.992187,38.92188 h 73.00781 73.00586 c 35.36811,0.17299 38.99414,-3.62515 38.99414,-38.92188 v -57.07617 z"
     id="path45" />
  <g
     style="enable-background:new"
     id="g1063"
     transform="translate(94.879699,59.347348)">
    <g
       transform="translate(0,-172)"
       id="layer1">
      <g
         id="layer9">
        <g
           id="g99"
           clip-path="url(#clipPath2024)" />
      </g>
    </g>
  </g>
  <path
     style="fill:#e5a50a;fill-opacity:1"
     d="M 144.81641 39.666016 L 127.82617 39.666016 L 54.818359 39.666016 C 19.449829 39.666016 15.826172 43.291175 15.826172 78.587891 L 15.826172 176.74414 C 15.826172 212.04087 19.450239 215.83901 54.818359 215.66602 L 127.82617 215.66602 L 144.81641 215.66602 L 144.81641 39.666016 z "
     id="path1124" />
  <path
     style="fill:#63452c;fill-opacity:1"
     d="M 144.81641 39.666016 L 144.81641 215.66602 L 200.83203 215.66602 C 236.20014 215.83901 239.82617 212.04087 239.82617 176.74414 L 239.82617 78.587891 C 239.82617 43.291175 236.20056 39.666016 200.83203 39.666016 L 144.81641 39.666016 z "
     id="path1119" />
  <g
     id="g1214"
     transform="translate(-18.592725,2.6092473)">
    <g
       style="enable-background:new"
       id="g111"
       transform="matrix(2.3505219,0,0,2.3505219,-24.138175,-497.82883)">
      <circle
         id="circle107"
         r="8"
         cy="254"
         cx="100"
         style="fill:#e5a50a" />
      <circle
         id="circle109"
         r="1.313"
         cy="249"
         cx="97"
         style="fill:#63452c" />
    </g>
    <rect
       id="rect115"
       ry="4.7010441"
       rx="4.7010441"
       y="136.81212"
       x="192.10985"
       height="9.4020882"
       width="14.103132"
       style="fill:#e5a50a;stroke-width:2.35052204;enable-background:new" />
    <rect
       id="rect119"
       style="fill:#e5a50a;stroke-width:2.35052204;enable-background:new"
       ry="4.7010441"
       rx="4.7010441"
       y="136.81212"
       x="215.61504"
       height="9.4020882"
       width="14.103132" />
    <rect
       id="rect123"
       style="fill:#e5a50a;stroke-width:2.35052204;enable-background:new"
       ry="4.7010441"
       rx="4.7010441"
       y="160.31729"
       x="192.10985"
       height="9.4020882"
       width="14.103132" />
    <rect
       id="rect127"
       ry="4.7010441"
       rx="4.7010441"
       y="160.31729"
       x="215.61504"
       height="9.4020882"
       width="14.103132"
       style="fill:#e5a50a;stroke-width:2.35052204;enable-background:new" />
  </g>
  <path
     inkscape:connector-curvature="0"
     d="M 80.321279,75.957224 A 51.711483,51.711483 0 0 0 50.701052,85.359333 H 110.00581 A 51.711483,51.711483 0 0 0 80.321279,75.957224 Z m -39.85787,18.80419 A 51.711483,51.711483 0 0 0 34.320831,104.1635 H 126.3814 a 51.711483,51.711483 0 0 0 -6.22519,-9.402086 z m -9.842814,18.804166 a 51.711483,51.711483 0 0 0 -1.776645,9.40208 H 131.7757 a 51.711483,51.711483 0 0 0 -1.717,-9.40208 z m -1.753704,18.80418 a 51.711483,51.711483 0 0 0 1.716994,9.40209 h 99.438085 a 51.711483,51.711483 0 0 0 1.77666,-9.40209 z m 5.394264,18.80417 a 51.711483,51.711483 0 0 0 6.225222,9.40208 h 79.692773 a 51.711483,51.711483 0 0 0 6.14257,-9.40208 z m 16.375616,18.80419 a 51.711483,51.711483 0 0 0 29.684508,9.40209 51.711483,51.711483 0 0 0 29.620251,-9.40209 z"
     style="fill:#63452c;stroke-width:2.35052204;enable-background:new"
     id="path130" />
  <path
     style="opacity:0.3;fill:#ffffff"
     d="m 54.81817,39.667201 c -35.36853,0 -38.992187,3.623202 -38.992187,38.919923 v 98.158206 c 0,0.0882 0.0019,0.16224 0.002,0.25 V 80.585174 c -4.7e-5,-35.29672 3.625564,-38.921879 38.994094,-38.921879 h 73.005853 73.00586 c 35.28016,0 38.97394,3.621035 38.99219,38.671879 v -1.74805 c 0,-35.296721 -3.62561,-38.919923 -38.99414,-38.919923 h -73.00586 z"
     id="path41" />
  <path
     style="opacity:0.2"
     d="m 15.825983,174.74533 v 2 c 0,35.29673 3.624067,39.09487 38.992187,38.92188 h 73.00781 73.00586 c 35.36811,0.17299 38.99414,-3.62515 38.99414,-38.92188 v -2 c 0,35.29673 -3.62603,39.09487 -38.99414,38.92188 H 127.82598 54.81817 C 19.45005,213.8402 15.825983,210.04206 15.825983,174.74533 Z"
     id="path43" />
</svg>
